material/.icons/material/ring.svg

<svg xmlns="http://www.w3.org/2000/svg" viewBox="0 0 24 24"><path d="M12 10L8 4.4 9.6 2h4.8L16 4.4 12 10m3.5-3.2l-1.2 1.7c2.2.9 3.7 3 3.7 5.5a6 6 0 01-6 6 6 6 0 01-6-6c0-2.5 1.5-4.6 3.7-5.5L8.5 6.8C5.8 8.1 4 10.8 4 14a8 8 0 008 8 8 8 0 008-8c0-3.2-1.8-5.9-4.5-7.2z"/></svg>

<?xml version="1.0" encoding="UTF-8"?><!DOCTYPE svg PUBLIC "-//W3C//DTD SVG 1.1//EN" "http://www.w3.org/Graphics/SVG/1.1/DTD/svg11.dtd"><svg xmlns="http://www.w3.org/2000/svg" xmlns:xlink="http://www.w3.org/1999/xlink" version="1.1" id="mdi-ring" width="24" height="24" viewBox="0 0 24 24"><path d="M12,10L8,4.4L9.6,2H14.4L16,4.4L12,10M15.5,6.8L14.3,8.5C16.5,9.4 18,11.5 18,14A6,6 0 0,1 12,20A6,6 0 0,1 6,14C6,11.5 7.5,9.4 9.7,8.5L8.5,6.8C5.8,8.1 4,10.8 4,14A8,8 0 0,0 12,22A8,8 0 0,0 20,14C20,10.8 18.2,8.1 15.5,6.8Z" /></svg>
